X: 7
T: O'Sullivan's March
R: jig
M: 6/8
L: 1/8
K: Gmaj
|: D |GBA ABd | edB A2 G | GBA B2 A | BGG GED |
GBA ABd | edB A2 G | GBA B2 A | BGG G2 :|
|: d |edg edg | edg edB | dBe dBe | dBG ABd |
gee fdd | edB A2 G | GBA B2 A | BGG G2 :|


Tune 2204	Setting 22668

